!!!OTL: Gechang baiqiuen
!!!ARE: Asia, China,ÿHebei Laiyuan
!! IV, 36
!!!SCT: C1918
!!!YEM: Copyright 1995, estate of Helmut Schaffrath.
**kern
*ICvox
*Ivox
*M2/4
*k[b-e-]
*B-:
{8ccc
8ccc
8ddd
8bb-
=1
2ccc}
=2
{8fff
16fff
16ddd
8ccc
8ddd
=3
2ff}
=4
{8ccc
8ddd
4ccc
=5
8ccc
8fff
8ddd
16fff
16fff
=6
4ccc
8ddd
8gg
=7
4bb-
8bb-
8gg
=8
8ff
8ff
8gg
8dd
=9
2cc}
==
!!!AGN: Xiaodiao
!!!AMT: simple duple
!!!AIN: vox
!!!EED: Helmut Schaffrath
!!!EEV: 1.0
*-
